X: 84
T:Dibdin's Fancy. WM.083
M:2/4
L:1/8
Q:300
S:Wm.Mittell's MS,New Romney,Kent,1799
R:Reel
O:England
A:Kent
N:Dibdin's sense of humour appears to be breaking out between bars 4 & 5
H:
Z:vmp.Chris Partington
W:Set & change sides & back again,lead down the middle,up again,cast off
W:Allemand
K:G
GDGD|CDDD|EEGB|cAFG|DGDC|DDFD|AFG2|G,2"*"z2:|!
|:dBcd|egge|dBAG|c>dc>d|dBcB|dgge|dBAG|d2D2:|]
W:Bar 8,rest missing in MS. |]
